X:842
T:Going to the well for water
R:Slide
O:Ireland
D:Sean Ryan: Take the Air
B:Irish Traditional Music Session Tunes 3 p7
S:My arrangement from various sources
Z:Transcription, arrangement, chords:Mike Long
M:12/8
L:1/8
K:D
"D"A2f A2f A2f fed|"G"B2g B2g B2g gfe|\
"A"c2c BcB Ace a2f|
"G"gfe "A"Bce [1 "D"d2d dcB:|[2 "D"d2d d2e\
|:"D"f2f fed "A"efe edc|"Bm"ded dcB
"A"c2c cBA|\
"G"GBd GBd "D"FAd FAd|"A"EDE e2d [1 "A"cBc "D"d2e:|[2 "A"cBc "D"dcB|]
